img/auth-mailru.svg

<svg width="25" height="25" viewBox="0 0 25 25" fill="none" xmlns="http://www.w3.org/2000/svg">
<path d="M0 12.48C0 5.58749 5.58749 0 12.48 0C19.3725 0 24.96 5.58749 24.96 12.48C24.96 19.3725 19.3725 24.96 12.48 24.96C5.58749 24.96 0 19.3725 0 12.48Z" fill="#005FF9"/>
<path fill-rule="evenodd" clip-rule="evenodd" d="M5.19995 12.4593C5.19995 8.45648 8.46568 5.19995 12.4798 5.19995C16.494 5.19995 19.7598 8.45648 19.7598 12.4593C19.7598 13.0264 19.7125 13.4854 19.6064 13.9462L19.6049 13.9538C19.6046 13.9552 19.552 14.1676 19.5229 14.2603C19.343 14.8341 19.0173 15.312 18.5808 15.6423C18.1576 15.9627 17.6329 16.1392 17.1033 16.1392C17.0379 16.1392 16.972 16.1366 16.9075 16.1314C16.1554 16.0712 15.4942 15.6766 15.0887 15.0473C14.3913 15.7466 13.4661 16.1313 12.4798 16.1313C10.4494 16.1313 8.79753 14.484 8.79753 12.4593C8.79753 10.4346 10.4494 8.7874 12.4798 8.7874C14.5103 8.7874 16.1622 10.4346 16.1622 12.4593V13.643C16.1652 14.3336 16.63 14.6159 17.027 14.6479C17.4221 14.6783 17.9478 14.4488 18.131 13.6999C18.2213 13.2892 18.2672 12.8717 18.2672 12.4593C18.2672 9.27712 15.671 6.68826 12.4798 6.68826C9.28868 6.68826 6.69251 9.27712 6.69251 12.4593C6.69251 15.6415 9.28868 18.2304 12.4798 18.2304C13.5907 18.2304 14.671 17.914 15.6041 17.3155L15.6208 17.3047L16.6015 18.4417L16.5805 18.4561C15.3685 19.2821 13.9505 19.7187 12.4798 19.7187C8.46568 19.7187 5.19995 16.4622 5.19995 12.4593ZM12.4798 14.6429C13.6873 14.6429 14.6696 13.6634 14.6696 12.4593C14.6696 11.2553 13.6873 10.2757 12.4798 10.2757C11.2724 10.2757 10.2901 11.2553 10.2901 12.4593C10.2901 13.6634 11.2724 14.6429 12.4798 14.6429Z" fill="#FF9E00"/>
</svg>

<svg width="25" height="25" fill="none" xmlns="http://www.w3.org/2000/svg"><path d="M0 12.48C0 5.587 5.587 0 12.48 0c6.892 0 12.48 5.587 12.48 12.48 0 6.892-5.588 12.48-12.48 12.48C5.587 24.96 0 19.372 0 12.48Z" fill="#005FF9"/><path fill-rule="evenodd" clip-rule="evenodd" d="M5.2 12.46c0-4.004 3.266-7.26 7.28-7.26s7.28 3.256 7.28 7.26c0 .566-.048 1.025-.154 1.486l-.001.008c0 .001-.053.214-.082.306-.18.574-.506 1.052-.942 1.382a2.462 2.462 0 0 1-1.674.49 2.368 2.368 0 0 1-1.818-1.085 3.681 3.681 0 0 1-6.291-2.588 3.681 3.681 0 0 1 3.682-3.672 3.681 3.681 0 0 1 3.682 3.672v1.184c.003.69.468.973.865 1.005.395.03.92-.2 1.104-.948a5.8 5.8 0 0 0 .136-1.24c0-3.183-2.596-5.772-5.787-5.772s-5.787 2.59-5.787 5.771c0 3.183 2.596 5.771 5.787 5.771 1.11 0 2.191-.316 3.124-.915l.017-.01.98 1.137-.02.014a7.252 7.252 0 0 1-4.101 1.263c-4.014 0-7.28-3.257-7.28-7.26Zm7.28 2.183a2.19 2.19 0 0 0 2.19-2.184 2.19 2.19 0 0 0-4.38 0 2.19 2.19 0 0 0 2.19 2.184Z" fill="#FF9E00"/></svg>
